!!!OTL: Ehestandslied (Band 1), S. 227
!!!id: P0856
**kern
*clefG2
*k[f#]
*G:
{8d
8d
=1
4.g
8f#
4g
8a
8a
=2
4.b
8a
4g}
=3
{8g
16a
16b
=4
4.b
8a
4b
4cc
=5
4dd
4dd
4b}
=6
{8a
8b
=7
2cc
[4.dd
16dd]
16b
=8
2.a}
=9
{4g
=10
4.g
8b
4dd
8b
8g
=11
4.a
8b
4cc}
=12
{4a
=13
4b
4cc
4dd
4g
=14
4g
8f#
8e
4d}
=15
{4d
=16
2g
2a
=17
4.g
8b
8.dd
16ee
8dd
8cc
=18
2b
2a
=19
2g}
4r
==
*-
!!!minrhy: 16
!!!meters: 4/4 ]  ZZ[6
!!!cut: Ehestandslied (Band 1), S. 227
!!!reg: Lothringen
!!!trd: PINCK, Louis: Verklingende Weisen, Bd 1, Metz 1928
!!!rhy1: X_X_  X__.X_X__X_X_  X__.X_X__
!!!rhy2: X_XX  X__.X_X__X__  X__X__X__
!!!key: P0856  16  G 4/4 ]  ZZ[6
!!!mod: HEPTATONIK IONISCH]  AMBITUS[9
!!!kad: 1324-51
!!!akz: 1131_3353_4522_1524_351-5_1215321_
!!!fot: 'a__as'b__c__d__e__
!!!for: 'a__b__c__av_d__e__
!!!fok: '^a_^a_^__~a_^d_^a_
!! PHRAS[AUFTAKTIG]
!!!fkt: Ehestandslied, religiös
!! LOTH VKL
!! PR[36] 2K[9] 2G[11] 3K[4] 3G[0] 4A[9] 4Ü[0] 5A[0] 6K[0] 6G[0]
!! 7K[0] 7G[0] 8A[0] MEHR[0] SI[32] ABS[47] SR[19] SP[13]
!! ST[17] 2k[11] 2g[13] 3k[4] 3g[0] 4d[2] 4ü[0] 5d[2] 6k[0] 6g[0]
!! 7k[0] 7g[0] 8d[0] mehr[0] si[32] dm[0] sr[23] sp[9]
!! 1F[2] 2F[25] 3F[50] 4F[8] LF[0] 2P[2] 3P[8] 4P[4] TRI[4] DF[7] AB[48]
!! TF[0] U3K[0] U3[0] U4[2] U4Ü[0] U5[17] U6K[4] U6[0] U7K[8] U7[2]
!! N1[23] N2K[0] N2[6] N3K[23] N3[0] N4[6] N4Ü[0] N5[6] N6K[2] N6[0]
!!!n7k: 0] N7[0] O1[0] O2K[0] O2[0] O3K[0] O3[0] HÖ[0
